swiss/communes/0499.svg

<?xml version="1.0" encoding="UTF-8" standalone="no"?>
<svg
   xmlns:dc="http://purl.org/dc/elements/1.1/"
   xmlns:cc="http://web.resource.org/cc/"
   xmlns:rdf="http://www.w3.org/1999/02/22-rdf-syntax-ns#"
   xmlns:svg="http://www.w3.org/2000/svg"
   xmlns="http://www.w3.org/2000/svg"
   xmlns:xlink="http://www.w3.org/1999/xlink"
   xmlns:sodipodi="http://sodipodi.sourceforge.net/DTD/sodipodi-0.dtd"
   xmlns:inkscape="http://www.inkscape.org/namespaces/inkscape"
   height="763"
   width="603"
   version="1.0"
   id="svg20"
   sodipodi:version="0.32"
   inkscape:version="0.44.1"
   sodipodi:docname="Siselen-coat of arms.svg"
   sodipodi:docbase="F:\Mis Documentos\Mis imágenes\Encyclopédie\Escudos de Suiza">
  <metadata
     id="metadata31">
    <rdf:RDF>
      <cc:Work
         rdf:about="">
        <dc:format>image/svg+xml</dc:format>
        <dc:type
           rdf:resource="http://purl.org/dc/dcmitype/StillImage" />
        <dc:date>07-AUG-2006</dc:date>
        <dc:creator>
          <cc:Agent>
            <dc:title>Jérôme BLUM (wagner51)</dc:title>
          </cc:Agent>
        </dc:creator>
        <cc:license
           rdf:resource="http://creativecommons.org/licenses/GPL/2.0/" />
        <dc:coverage />
        <dc:description>Gabarit pour le Projet:Blasons de WIkipédia</dc:description>
        <dc:subject>
          <rdf:Bag>
            <rdf:li>blason suisse modèle gabarit projet blasons</rdf:li>
          </rdf:Bag>
        </dc:subject>
        <dc:language>fr</dc:language>
        <dc:title>Gabrit d'un blason suisse</dc:title>
      </cc:Work>
      <cc:License
         rdf:about="http://creativecommons.org/licenses/GPL/2.0/">
        <cc:permits
           rdf:resource="http://web.resource.org/cc/Reproduction" />
        <cc:permits
           rdf:resource="http://web.resource.org/cc/Distribution" />
        <cc:requires
           rdf:resource="http://web.resource.org/cc/Notice" />
        <cc:permits
           rdf:resource="http://web.resource.org/cc/DerivativeWorks" />
        <cc:requires
           rdf:resource="http://web.resource.org/cc/ShareAlike" />
        <cc:requires
           rdf:resource="http://web.resource.org/cc/SourceCode" />
      </cc:License>
    </rdf:RDF>
  </metadata>
  <defs
     id="defs29">
    <linearGradient
       id="linearGradient2893">
      <stop
         style="stop-color:#ffffff;stop-opacity:0.3137255;"
         offset="0"
         id="stop2895" />
      <stop
         id="stop2897"
         offset="0.19"
         style="stop-color:#ffffff;stop-opacity:0.25098041;" />
      <stop
         style="stop-color:#6b6b6b;stop-opacity:0.1254902;"
         offset="0.60000002"
         id="stop2901" />
      <stop
         style="stop-color:#000000;stop-opacity:0.1254902;"
         offset="1"
         id="stop2899" />
    </linearGradient>
    <linearGradient
       id="linearGradient2955">
      <stop
         style="stop-color:white;stop-opacity:0;"
         offset="0"
         id="stop2965" />
      <stop
         style="stop-color:black;stop-opacity:0.64583331;"
         offset="1"
         id="stop2959" />
    </linearGradient>
    <radialGradient
       inkscape:collect="always"
       xlink:href="#linearGradient2893"
       id="radialGradient3236"
       gradientUnits="userSpaceOnUse"
       gradientTransform="matrix(1.215027,1.531577e-24,1.464684e-23,1.266667,-839.1924,-490.4894)"
       cx="858.04236"
       cy="579.93323"
       fx="858.04236"
       fy="579.93323"
       r="300" />
  </defs>
  <sodipodi:namedview
     inkscape:window-height="682"
     inkscape:window-width="1024"
     inkscape:pageshadow="2"
     inkscape:pageopacity="0.0"
     guidetolerance="10.0"
     gridtolerance="10.0"
     objecttolerance="10.0"
     borderopacity="1.0"
     bordercolor="#666666"
     pagecolor="#ffffff"
     id="base"
     inkscape:zoom="0.62638988"
     inkscape:cx="310.19099"
     inkscape:cy="349.24592"
     inkscape:window-x="-4"
     inkscape:window-y="-4"
     inkscape:current-layer="layer2"
     showgrid="true" />
  <desc
     id="desc22">Coat of Arms of Canton of Freiburg (Fribourg)</desc>
  <g
     inkscape:groupmode="layer"
     id="layer1"
     inkscape:label="Fond écu"
     sodipodi:insensitive="true">
    <path
       id="path1899"
       d="M 1.5,1.49998 L 1.5,460.3679 C 1.5,626.6785 135.81456,761.5 301.49999,761.5 C 467.18543,761.5 601.5,626.6785 601.5,460.3679 L 601.5,1.49998 L 1.5,1.49998 z "
       style="fill:#e20909;fill-opacity:1" />
  </g>
  <g
     inkscape:groupmode="layer"
     id="layer2"
     inkscape:label="Meubles"
     sodipodi:insensitive="true">
    <g
       id="g10107">
      <path
         sodipodi:nodetypes="cccccccccc"
         id="path2991"
         d="M 577.91691,321.65782 C 542.831,358.27289 513.64281,399.31123 496.24869,449.19513 C 433.08193,388.5621 357.25318,342.70801 337.90102,212.50511 L 404.60293,675.02993 C 396.7079,742.18562 182.70606,745.9095 194.56592,665.42185 L 263.76222,211.62742 C 251.81604,330.73987 154.15506,402.35769 108.74038,448.31744 C 86.882335,402.58377 61.526336,358.59905 22.083415,321.65782 C 96.473457,258.71922 215.41399,193.21561 302.10192,38.313441 C 394.04025,185.13308 487.64149,255.26119 577.91691,321.65782 z "
         style="fill:white;fill-opacity:1;fill-rule:evenodd;stroke:black;stroke-width:3;stroke-linecap:butt;stroke-linejoin:miter;stroke-miterlimit:4;stroke-dasharray:none;stroke-opacity:1" />
      <g
         id="g10103">
        <path
           sodipodi:type="arc"
           style="opacity:0.9;fill:white;fill-opacity:1;fill-rule:evenodd;stroke:black;stroke-width:0.71756679;stroke-linecap:round;stroke-linejoin:round;stroke-miterlimit:4;stroke-dasharray:none;stroke-opacity:1"
           id="path3878"
           sodipodi:cx="760.10968"
           sodipodi:cy="469.8519"
           sodipodi:rx="20.155178"
           sodipodi:ry="8.5809174"
           d="M 780.26486 469.8519 A 20.155178 8.5809174 0 1 1  739.9545,469.8519 A 20.155178 8.5809174 0 1 1  780.26486 469.8519 z"
           transform="matrix(5.232658,0,0,5.938448,-3678.732,-2113.936)" />
        <path
           transform="matrix(3.39294,0,0,2.73579,-2281.188,-608.7418)"
           d="M 780.26486 469.8519 A 20.155178 8.5809174 0 1 1  739.9545,469.8519 A 20.155178 8.5809174 0 1 1  780.26486 469.8519 z"
           sodipodi:ry="8.5809174"
           sodipodi:rx="20.155178"
           sodipodi:cy="469.8519"
           sodipodi:cx="760.10968"
           id="path4765"
           style="opacity:0.9;fill:white;fill-opacity:1;fill-rule:evenodd;stroke:black;stroke-width:0.98467243;stroke-linecap:round;stroke-linejoin:round;stroke-miterlimit:4;stroke-dasharray:none;stroke-opacity:1"
           sodipodi:type="arc" />
      </g>
      <path
         transform="matrix(5.154256,0,0,5.154256,-3599.785,-1731.649)"
         d="M 758.81252 450.04596 A 2.3946748 2.1452293 0 1 1  754.02317,450.04596 A 2.3946748 2.1452293 0 1 1  758.81252 450.04596 z"
         sodipodi:ry="2.1452293"
         sodipodi:rx="2.3946748"
         sodipodi:cy="450.04596"
         sodipodi:cx="756.41785"
         id="path4767"
         style="opacity:0.9;fill:black;fill-opacity:1;fill-rule:evenodd;stroke:black;stroke-width:0.58204329;stroke-linecap:round;stroke-linejoin:round;stroke-miterlimit:4;stroke-dasharray:none;stroke-opacity:1"
         sodipodi:type="arc" />
      <path
         sodipodi:type="arc"
         style="opacity:0.9;fill:black;fill-opacity:1;fill-rule:evenodd;stroke:black;stroke-width:0.58204329;stroke-linecap:round;stroke-linejoin:round;stroke-miterlimit:4;stroke-dasharray:none;stroke-opacity:1"
         id="path4769"
         sodipodi:cx="756.41785"
         sodipodi:cy="450.04596"
         sodipodi:rx="2.3946748"
         sodipodi:ry="2.1452293"
         d="M 758.81252 450.04596 A 2.3946748 2.1452293 0 1 1  754.02317,450.04596 A 2.3946748 2.1452293 0 1 1  758.81252 450.04596 z"
         transform="matrix(5.154256,0,0,5.154256,-3599.785,-1781.648)" />
    </g>
  </g>
  <g
     inkscape:groupmode="layer"
     id="layer3"
     inkscape:label="Reflet final"
     style="display:inline"
     sodipodi:insensitive="true">
    <path
       style="fill:url(#radialGradient3236);fill-opacity:1"
       d="M 1.5,1.5 L 1.5,460.3679 C 1.5,626.67854 135.81454,761.5 301.49993,761.5 C 467.1854,761.5 601.5,626.67854 601.5,460.3679 L 601.5,1.5 L 1.5,1.5 z "
       id="path2346" />
  </g>
  <g
     inkscape:groupmode="layer"
     id="layer4"
     inkscape:label="Contour final"
     style="display:inline"
     sodipodi:insensitive="true">
    <path
       style="fill:none;fill-opacity:1;stroke:#000000;stroke-width:3;stroke-miterlimit:4;stroke-dasharray:none;stroke-opacity:1"
       d="M 1.5,1.5 L 1.5,460.36794 C 1.5,626.67854 135.81454,761.5 301.49993,761.5 C 467.1854,761.5 601.5,626.67854 601.5,460.36794 L 601.5,1.5 L 1.5,1.5 z "
       id="path3239" />
  </g>
</svg>

<svg xmlns="http://www.w3.org/2000/svg" xmlns:xlink="http://www.w3.org/1999/xlink" height="763" width="603" version="1.0"><defs><radialGradient xlink:href="#a" id="b" gradientUnits="userSpaceOnUse" gradientTransform="matrix(1.21503 0 0 1.26667 -839.192 -490.49)" cx="858.042" cy="579.933" fx="858.042" fy="579.933" r="300"/><linearGradient id="a"><stop style="stop-color:#fff;stop-opacity:.3137255" offset="0"/><stop offset=".19" style="stop-color:#fff;stop-opacity:.25098041"/><stop style="stop-color:#6b6b6b;stop-opacity:.1254902" offset=".6"/><stop style="stop-color:#000;stop-opacity:.1254902" offset="1"/></linearGradient></defs><path d="M1.5 1.5v458.868c0 166.31 134.315 301.132 300 301.132s300-134.822 300-301.132V1.5H1.5z" style="fill:#e20909;fill-opacity:1"/><path d="M577.917 321.658c-35.086 36.615-64.274 77.653-81.668 127.537-63.167-60.633-138.996-106.487-158.348-236.69l66.702 462.525c-7.895 67.156-221.897 70.88-210.037-9.608l69.196-453.795c-11.946 119.113-109.607 190.73-155.022 236.69-21.858-45.733-47.214-89.718-86.657-126.66 74.39-62.938 193.331-128.441 280.019-283.344 91.938 146.82 185.54 216.948 275.815 283.345z" style="fill:#fff;fill-opacity:1;fill-rule:evenodd;stroke:#000;stroke-width:3;stroke-linecap:butt;stroke-linejoin:miter;stroke-miterlimit:4;stroke-dasharray:none;stroke-opacity:1"/><path style="opacity:.9;fill:#fff;fill-opacity:1;fill-rule:evenodd;stroke:#000;stroke-width:.71756679;stroke-linecap:round;stroke-linejoin:round;stroke-miterlimit:4;stroke-dasharray:none;stroke-opacity:1" d="M780.265 469.852a20.155 8.58 0 1 1-40.31 0 20.155 8.58 0 1 1 40.31 0z" transform="matrix(5.23266 0 0 5.93845 -3678.732 -2113.936)"/><path transform="matrix(3.39294 0 0 2.73579 -2281.188 -608.742)" d="M780.265 469.852a20.155 8.58 0 1 1-40.31 0 20.155 8.58 0 1 1 40.31 0z" style="opacity:.9;fill:#fff;fill-opacity:1;fill-rule:evenodd;stroke:#000;stroke-width:.98467243;stroke-linecap:round;stroke-linejoin:round;stroke-miterlimit:4;stroke-dasharray:none;stroke-opacity:1"/><path transform="matrix(5.15426 0 0 5.15426 -3599.785 -1731.649)" d="M758.813 450.046a2.395 2.145 0 1 1-4.79 0 2.395 2.145 0 1 1 4.79 0z" style="opacity:.9;fill:#000;fill-opacity:1;fill-rule:evenodd;stroke:#000;stroke-width:.58204329;stroke-linecap:round;stroke-linejoin:round;stroke-miterlimit:4;stroke-dasharray:none;stroke-opacity:1"/><path style="opacity:.9;fill:#000;fill-opacity:1;fill-rule:evenodd;stroke:#000;stroke-width:.58204329;stroke-linecap:round;stroke-linejoin:round;stroke-miterlimit:4;stroke-dasharray:none;stroke-opacity:1" d="M758.813 450.046a2.395 2.145 0 1 1-4.79 0 2.395 2.145 0 1 1 4.79 0z" transform="matrix(5.15426 0 0 5.15426 -3599.785 -1781.648)"/><g style="display:inline"><path style="fill:url(#b);fill-opacity:1" d="M1.5 1.5v458.868c0 166.31 134.315 301.132 300 301.132s300-134.821 300-301.132V1.5H1.5z"/></g><g style="display:inline"><path style="fill:none;fill-opacity:1;stroke:#000;stroke-width:3;stroke-miterlimit:4;stroke-dasharray:none;stroke-opacity:1" d="M1.5 1.5v458.868c0 166.31 134.315 301.132 300 301.132s300-134.821 300-301.132V1.5H1.5z"/></g></svg>
